X:1
T:As the hart
T:As the hart
L:1/8
Q:1/4=112
M:6/4
K:F
V:1 treble-8 nm="Piano" snm="Pno."
V:1
 z6 z2 c2 c2 | d6 c6 | B2 B2 _e2 e4 e2 | d2 c2 B2 B4 A2 | B2 c2 d2 c2 f2 e2 | f4 c2 c4 f2 | %6
w: As the|hart pants|af- ter the wa- ter-|brooks * the wa- ter-|brooks, * so panteth * my|soul for thee, O|
 e4 z2 z2 z2 c2 | f2 d2 c2 =B4 B2 | =B2 c2 G2 c2 A2 G2 | F4 G2 A2 d2 d2 | d4 z2 z2 f2 f2 | %11
w: God so|panteth * my soul for|Thee, * so panteth * my|soul for Thee, * O|God, as the|
 e6 e2 f2 c2 | c4 d2 e4 e2 | d2 d2 ^c2 d2 =B2 =c2 | c4 =B2 c2 e2 g2 | g4 f2 e4 d2 | c6 c2 d2 d2 | %17
w: hart, af- ter the|wa- ter- brroks, so|pant- eth my soul * for|Thee, O God, * so|pant- * eth my|soul, so pants my|
 d2 c2 c2 c4 f2 | e4 z8 | z12 | z12 | z12 | z2 z2 A2 d2 B2 A2 | G4 G2 c2 A2 G2 | ^F4 d2 d2 ^c2 d2 | %25
w: soul * for Thee, O|God,||||so pant- eth my|soul for Thee * O|God, for Thee, . .|
 e2 f2 e2 d4 z2 | z2 z2 d2 e6- | e2 f2 e2 d6- | d2 c2 =B2 A4 A2 | d2 _B2 A2 G4 G2 | g2 f2 e2 d6- | %31
w: . . O God,|O God,|. . for Thee,|. . O God. so|pan- teth my soul for|Thee, * O God,|
 d2 f2 f2 e6- | e4 d2 ^c2 e2 B2 | A4 A2 g4 f2 | e4 z8 | z4 A2 d2 d2 d2 | _e4 g2 g4 ^f2 | %37
w: . Thee, O God,|. so pan- teth my|soul for Thee, O|God,|so pant- eth my|soul for Thee, O|
 g2 d2 d2 _e6 | d2 d2 d2 _e6 | d4 d2 d2 B2 G2 | g4 _e2 c4 c2 | d4 f2 f2 f2 f2 | d4 d2 d4 d2 | %43
w: God, as the hart|pants, as the hart|pants, so pant- eth my|soul for Thee, O|God, so pant- eth my|soul for Thee, O|
 c2 =e2 e2 f6 | e2 e2 e2 f4 f2 | e12 | e12- | e2 z2 z8 | z12 | z12 | z12 | z8 z2 f2 | %52
w: God, as the hart|pants, as the hart the|hart|pants,|.||||so|
 e2 c2 _e2 d4 c2 | B4 B2 A2 c2 f2 | e4 d2 c4 B2 | A2 B2 c2 d2 e2 f2 | c4 z2 c2 B3 B | A4 z4 z2 B2 | %58
w: pant- eth my soul for|Thee, O God * so|pant- * eth my|soul * for Thee, * O|God, Thee, * O|God O|
 A6 z2 z4 | z2 z2 f2 e4 _e2 | d6- d2 z4 | z2 c2 c2 f6 | c4 z2 d2 d2 c2 | B4 B2 c4 c2 | %64
w: God|for Thee, O|God, ...|as the hart|pants af- ter the|wa- ter brooks, so|
 c2 B2 A2 G4 B2 | A6 B6 | A12- | A12 |] %68
w: pant- eth my soul for|Thee, O|God||

